packages/elements/bolt-icon/src/svgs/picture.svg

<svg enable-background="new 0 0 32 32" viewBox="0 0 32 32" xmlns="http://www.w3.org/2000/svg"><g clip-rule="evenodd" fill="#151619" fill-rule="evenodd" transform="translate(2 2)"><path d="m8.4 7.6c.4 0 .8.4.8.8s-.4.8-.8.8-.8-.4-.8-.8.4-.8.8-.8m0 4.8c2.2 0 4-1.8 4-4s-1.8-4-4-4-4 1.8-4 4 1.8 4 4 4"/><path d="m25.2 26.8h-18.5l13.7-13.7 6.4 6.4v5.7c0 .9-.7 1.6-1.6 1.6zm-24-24c0-.9.7-1.6 1.6-1.6h22.4c.9 0 1.6.7 1.6 1.6v12.1l-5.3-5.3c-.6-.6-1.6-.6-2.3 0l-17 17c-.6-.2-1-.8-1-1.5zm28.8 16v-16c0-2.6-2.2-4.8-4.8-4.8h-22.4c-2.6 0-4.8 2.2-4.8 4.8v22.4c0 2.6 2.1 4.8 4.8 4.8h22.4c2.6 0 4.8-2.2 4.8-4.8z"/></g></svg>

<?xml version="1.0" encoding="utf-8"?>
<!-- Generator: Adobe Illustrator 25.2.0, SVG Export Plug-In . SVG Version: 6.00 Build 0)  -->
<svg version="1.1" id="Layer_1" xmlns="http://www.w3.org/2000/svg" xmlns:xlink="http://www.w3.org/1999/xlink" x="0px" y="0px"
	 viewBox="0 0 32 32" style="enable-background:new 0 0 32 32;" xml:space="preserve">
<style type="text/css">
	.st0{fill-rule:evenodd;clip-rule:evenodd;fill:#151619;}
</style>
<g transform="translate(2 2)">
	<path class="st0" d="M8.4,7.6c0.4,0,0.8,0.4,0.8,0.8c0,0.4-0.4,0.8-0.8,0.8C8,9.2,7.6,8.8,7.6,8.4C7.6,8,8,7.6,8.4,7.6 M8.4,12.4
		c2.2,0,4-1.8,4-4s-1.8-4-4-4s-4,1.8-4,4S6.2,12.4,8.4,12.4"/>
	<path class="st0" d="M25.2,26.8H6.7l13.7-13.7l6.4,6.4v5.7C26.8,26.1,26.1,26.8,25.2,26.8L25.2,26.8z M1.2,2.8
		c0-0.9,0.7-1.6,1.6-1.6h22.4c0.9,0,1.6,0.7,1.6,1.6v12.1l-5.3-5.3c-0.6-0.6-1.6-0.6-2.3,0l-17,17c-0.6-0.2-1-0.8-1-1.5L1.2,2.8
		L1.2,2.8z M30,18.8v-16C30,0.2,27.8-2,25.2-2H2.8C0.2-2-2,0.2-2,2.8v22.4c0,2.6,2.1,4.8,4.8,4.8h0h22.4c2.6,0,4.8-2.2,4.8-4.8V18.8
		z"/>
</g>
</svg>
